X: 2
T:Western Country
T:Fly Around My Pretty Little Miss
L:1/8
M:C|
K:D
|: "D"f2e2 d2B2 | dedB A2 A2- | A2A2 B2 d2 | [f3d3]e [f2d2] [f2d2]- |
  -"D"f2e2 d2B2 | dedB A2 A2- | "A"A2A2 BAcA | "D"[f3d3] [de] [f4d4] :|
|: "D"a2a2 f2a2 | "G"b3a b2a2- | "D"a2a2 agf2  | "A"e4 e2fg |
   "D"a2a2 f2a2 | "G"b3a b2a2- | "A"a2aa gfe2  | "D"[f3d3] [de] [f4d4] :|
N:Portland Collection, pg 288 - abc by Peter Ostapenko 3/16/2007
N:D Major
